X: 14160
T: From Galway To Dublin
R: hornpipe
M: 4/4
K: Edorian
|:B,D|~E3 E EDB,D|GFGB A2 GA|(3Bcd gf edBA|GE ~E2 FDB,D|
~E3 E EDB,D|GFGB A2 GA|(3Bcd gf edBA|GE (3FED E2:|
|:Bd|eged B2 BA|GFGB d2 Bd|(3efg ed BdBA|GE~E2 FDB,D|
E2 GE EDB,D|GFGB A2 GA|(3Bcd gf edBA|GE (3FED E2:|

